v28a/assets/img/photos/bad.svg

<svg xmlns="http://www.w3.org/2000/svg" fill="none" viewBox="0 0 30 30"><path fill="#808080" d="M9 16.178C6.39947 16.4026 3.90485 17.3121 1.77 18.814C1.52868 19.0003 1.33363 19.2398 1.20007 19.5139C1.06651 19.7879 0.998044 20.0891 1 20.394V23.5H23V20.394C23.002 20.0891 22.9335 19.7879 22.7999 19.5139C22.6664 19.2398 22.4713 19.0003 22.23 18.814C20.0952 17.3121 17.6005 16.4026 15 16.178"></path><path fill="#b2b2b2" d="M22.23 18.814C20.0952 17.3121 17.6005 16.4026 15 16.178H9C6.39947 16.4026 3.90485 17.3121 1.77 18.814C1.52868 19.0003 1.33363 19.2398 1.20007 19.5139C1.06651 19.7879 0.998044 20.0891 1 20.394V23.5H1.019C1.03781 23.2249 1.11441 22.9569 1.24382 22.7134C1.37322 22.4699 1.55252 22.2565 1.77 22.087C3.90494 20.5851 6.39947 19.6753 9 19.45H15C17.6005 19.6753 20.0951 20.5851 22.23 22.087C22.4475 22.2565 22.6268 22.4699 22.7562 22.7134C22.8856 22.9569 22.9622 23.2249 22.981 23.5H23V20.394C23.002 20.0891 22.9335 19.7879 22.7999 19.5139C22.6664 19.2398 22.4713 19.0003 22.23 18.814Z"></path><path fill="#ff808c" d="M9 13.7V16.5C9.89945 17.0815 10.9316 17.4255 12 17.5C13.0684 17.4255 14.1006 17.0815 15 16.5V13.7"></path><path fill="#ffdda1" stroke="#191919" stroke-linecap="round" stroke-linejoin="round" d="M17.8 9.99999C17.4696 11.2873 16.7204 12.428 15.6703 13.2426C14.6202 14.0572 13.329 14.4993 12 14.4993C10.671 14.4993 9.37979 14.0572 8.32972 13.2426C7.27964 12.428 6.5304 11.2873 6.2 9.99999C7.5 10.02 9.82 10.2 11.63 8.39999C11.7291 8.30372 11.8618 8.24986 12 8.24986C12.1382 8.24986 12.2709 8.30372 12.37 8.39999C14.18 10.2 16.5 10.02 17.8 9.99999Z"></path><path fill="#ffdda1" d="M17.91 5.50001H6.09C6.32503 4.10251 7.04768 2.83352 8.12965 1.91833C9.21161 1.00314 10.5829 0.500961 12 0.500961C13.4171 0.500961 14.7884 1.00314 15.8704 1.91833C16.9523 2.83352 17.675 4.10251 17.91 5.50001V5.50001Z"></path><path fill="#ffdda1" d="M12 3.00001C12.9487 3.0011 13.8834 3.22849 14.7266 3.66329C15.5697 4.09809 16.297 4.72776 16.848 5.50001H17.91C17.675 4.10251 16.9523 2.83352 15.8704 1.91833C14.7884 1.00314 13.4171 0.500961 12 0.500961C10.5829 0.500961 9.21161 1.00314 8.12965 1.91833C7.04768 2.83352 6.32503 4.10251 6.09 5.50001H7.152C7.703 4.72776 8.43028 4.09809 9.27345 3.66329C10.1166 3.22849 11.0513 3.0011 12 3.00001V3.00001Z"></path><path stroke="#191919" stroke-linecap="round" stroke-linejoin="round" d="M17.91 5.50001H6.09C6.32503 4.10251 7.04768 2.83352 8.12965 1.91833C9.21161 1.00314 10.5829 0.500961 12 0.500961C13.4171 0.500961 14.7884 1.00314 15.8704 1.91833C16.9523 2.83352 17.675 4.10251 17.91 5.50001V5.50001Z"></path><path stroke="#191919" stroke-linecap="round" stroke-linejoin="round" d="M13.5 11.5C13.0673 11.1754 12.5409 11 12 11C11.4591 11 10.9327 11.1754 10.5 11.5"></path><path fill="#808080" stroke="#191919" stroke-linecap="round" stroke-linejoin="round" d="M18 6.5V8.5C17.9985 9.0059 17.9346 9.50969 17.81 10H17.8C16.5 10.02 14.18 10.2 12.37 8.4C12.2709 8.30372 12.1382 8.24987 12 8.24987C11.8618 8.24987 11.7291 8.30372 11.63 8.4C9.82 10.2 7.5 10.02 6.2 10H6.19C6.06535 9.50969 6.00154 9.0059 6 8.5V6.5C5.99928 6.16461 6.02941 5.82987 6.09 5.5H17.91C17.9706 5.82987 18.0007 6.16461 18 6.5V6.5Z"></path><path stroke="#191919" stroke-linecap="round" stroke-linejoin="round" d="M17.92 5.5H17.91"></path><path stroke="#191919" stroke-linecap="round" stroke-linejoin="round" d="M6.09 5.5H6.08"></path><path stroke="#191919" stroke-linecap="round" stroke-linejoin="round" d="M23 23.5V20.393C23.0019 20.0883 22.9334 19.7873 22.7998 19.5134C22.6662 19.2395 22.4712 19.0001 22.23 18.814C20.0952 17.3121 17.6005 16.4026 15 16.178"></path><path stroke="#191919" stroke-linecap="round" stroke-linejoin="round" d="M9 16.178C6.39946 16.4026 3.90485 17.3121 1.77 18.814C1.52875 19.0001 1.33375 19.2395 1.20019 19.5134C1.06663 19.7873 0.99812 20.0883 0.999999 20.393V23.5"></path><path stroke="#191919" stroke-linecap="round" stroke-linejoin="round" d="M9 13.7V16.5C9.89945 17.0815 10.9316 17.4255 12 17.5C13.0684 17.4255 14.1006 17.0815 15 16.5V13.7"></path><path stroke="#191919" stroke-linecap="round" stroke-linejoin="round" d="M11 17.369V14.416"></path><path stroke="#191919" stroke-linecap="round" stroke-linejoin="round" d="M13 17.369V14.416"></path><path stroke="#191919" stroke-linecap="round" stroke-linejoin="round" d="M10 3V0.841995"></path><path stroke="#191919" stroke-linecap="round" stroke-linejoin="round" d="M14 3V0.841995"></path><path stroke="#191919" stroke-linecap="round" stroke-linejoin="round" d="M12 2.5V0.5"></path><path stroke="#191919" stroke-linecap="round" stroke-linejoin="round" d="M8.5 7.5H9.5"></path><path stroke="#191919" stroke-linecap="round" stroke-linejoin="round" d="M15.5 7.5H14.5"></path></svg>

<svg xmlns="http://www.w3.org/2000/svg" fill="none" viewBox="0 0 30 30"><path fill="gray" d="M9 16.178a14.775 14.775 0 00-7.23 2.636 1.98 1.98 0 00-.77 1.58V23.5h22v-3.106a1.979 1.979 0 00-.77-1.58A14.775 14.775 0 0015 16.178"/><path fill="#b2b2b2" d="M22.23 18.814A14.775 14.775 0 0015 16.178H9a14.775 14.775 0 00-7.23 2.636 1.98 1.98 0 00-.77 1.58V23.5h.019a1.961 1.961 0 01.751-1.413A14.783 14.783 0 019 19.45h6c2.6.225 5.095 1.135 7.23 2.637a1.96 1.96 0 01.751 1.413H23v-3.106a1.979 1.979 0 00-.77-1.58z"/><path fill="#ff808c" d="M9 13.7v2.8c.9.581 1.932.925 3 1a6.337 6.337 0 003-1v-2.8"/><path fill="#ffdda1" stroke="#191919" stroke-linecap="round" stroke-linejoin="round" d="M17.8 10a5.988 5.988 0 01-11.6 0c1.3.02 3.62.2 5.43-1.6a.531.531 0 01.74 0c1.81 1.8 4.13 1.62 5.43 1.6z"/><path fill="#ffdda1" d="M17.91 5.5H6.09a5.993 5.993 0 0111.82 0z"/><path fill="#ffdda1" d="M12 3a5.964 5.964 0 014.848 2.5h1.062a5.993 5.993 0 00-11.82 0h1.062A5.964 5.964 0 0112 3z"/><path stroke="#191919" stroke-linecap="round" stroke-linejoin="round" d="M17.91 5.5H6.09a5.993 5.993 0 0111.82 0v0zm-4.41 6a2.5 2.5 0 00-3 0"/><path fill="gray" stroke="#191919" stroke-linecap="round" stroke-linejoin="round" d="M18 6.5v2a6.165 6.165 0 01-.19 1.5h-.01c-1.3.02-3.62.2-5.43-1.6a.53.53 0 00-.74 0C9.82 10.2 7.5 10.02 6.2 10h-.01A6.164 6.164 0 016 8.5v-2c0-.335.03-.67.09-1h11.82c.06.33.09.665.09 1v0z"/><path stroke="#191919" stroke-linecap="round" stroke-linejoin="round" d="M17.92 5.5h-.01m-11.82 0h-.01M23 23.5v-3.107a1.978 1.978 0 00-.77-1.579A14.775 14.775 0 0015 16.178m-6 0a14.775 14.775 0 00-7.23 2.636A1.978 1.978 0 001 20.393V23.5m8-9.8v2.8c.9.581 1.932.925 3 1a6.337 6.337 0 003-1v-2.8m-4 3.669v-2.953m2 2.953v-2.953M10 3V.842M14 3V.842M12 2.5v-2m-3.5 7h1m6 0h-1"/></svg>
